src/main/resources/icons/AllIcons/webreferences/webSocket.svg

<!-- Copyright 2000-2021 JetBrains s.r.o. Use of this source code is governed by the Apache 2.0 license that can be found in the LICENSE file. -->
<svg xmlns="http://www.w3.org/2000/svg" width="16" height="16" viewBox="0 0 16 16">
  <g fill="none" fill-rule="evenodd">
    <path fill="#9AA7B0" fill-opacity=".8" d="M7,1 C10.312,1 13,3.688 13,7 C13,7.70142198 12.8794389,8.37485655 12.657922,9.00069827 L11.3611349,9.00127693 C11.6424263,8.39267436 11.8,7.71504906 11.8,7 C11.8,4.99 10.558,3.268 8.8,2.554 L8.8,2.554 L8.8,2.8 C8.8,3.46 8.26,4 7.6,4 L7.6,4 L6.4,4 L6.4,5.2 C6.4,5.53 6.13,5.8 5.8,5.8 L5.8,5.8 L4.6,5.8 L4.6,7 L8.2,7 C8.53,7 8.8,7.27 8.8,7.6 L8.8,7.6 L6,10 L5.99953645,10.5308771 C5.53488438,10.3650813 5.2,9.91975 5.2,9.4 L5.2,9.4 L5.2,8.8 L2.326,5.926 C2.248,6.274 2.2,6.628 2.2,7 C2.2,9.30842568 3.82727164,11.2327085 6.00012407,11.6911577 L6.00009109,12.916937 C3.16349251,12.440455 1,9.97134715 1,7 C1,3.688 3.688,1 7,1 Z"/>
    <g fill="#40B6E0" transform="translate(7 8)">
      <polygon points="6 8.001 9 5.502 6 3 6 5.001 1 5.001 1 6.001 6 6.001"/>
      <polygon points="0 2.497 3 5.001 3 3 8 3 8 2 3 2 3 .001"/>
    </g>
  </g>
</svg>

<svg xmlns="http://www.w3.org/2000/svg" width="16" height="16" viewBox="0 0 16 16"><rect id="frame" width="16" height="16" fill="none"/><g fill="none" fill-rule="evenodd"><path fill="#9AA7B0" fill-opacity=".8" d="M7 1a6.002 6.002 0 0 1 5.658 8l-1.297.001A4.757 4.757 0 0 0 11.8 7a4.803 4.803 0 0 0-3-4.446V2.8c0 .66-.54 1.2-1.2 1.2H6.4v1.2c0 .33-.27.6-.6.6H4.6V7h3.6c.33 0 .6.27.6.6L6 10v.53a1.205 1.205 0 0 1-.8-1.13v-.6L2.326 5.926A4.87 4.87 0 0 0 2.2 7 4.793 4.793 0 0 0 6 11.691v1.226A6.004 6.004 0 0 1 1 7c0-3.312 2.688-6 6-6z"/><g fill="#40B6E0"><path d="M13 16.001l3-2.499L13 11v2.001H8v1h5z"/><path d="M7 10.497l3 2.504V11h5v-1h-5V8.001z"/></g></g></svg>
